X: 10853
M: 6/8
L: 1/8
K: F
fga gfe | ddd def | ggg gbe | fff f2 H|]
c |\
(c<A)c (c<A)c | (B<G)c (B<G)c | (A<F)c (A<F)c | CCC C2c |\
(c<A)c (c<A)c | (B<G)c (B<G)c | (A<F)c (A<F)c | CCC CD"^D.C."E |]
K: Dm
(B<g)B (A<f)A | (G<e)G (F<d)F | (G<B)A GFE | D2D "^D.C."D2 |]


